brandFactory_export/3.Masa/Flechas Izquierda y Derecha_3Masa.svg

<?xml version="1.0" encoding="UTF-8"?>
<svg width="24px" height="24px" viewBox="0 0 24 24" version="1.1" xmlns="http://www.w3.org/2000/svg" xmlns:xlink="http://www.w3.org/1999/xlink">
    <title>3.Masa/Flechas Izquierda y Derecha_3Masa</title>
    <g id="Symbols" stroke="none" stroke-width="1" fill="none" fill-rule="evenodd">
        <g id="3.Masa/Flechas-Izquierda-y-Derecha_3Masa" fill="#5CB615" fill-rule="nonzero">
            <path d="M23.6840336,7.95966387 C23.6840336,8.21848739 23.5731092,8.46386555 23.3781513,8.63529412 L18.3260504,13.6268908 C18.3092437,13.6403361 18.2957983,13.6571429 18.2789916,13.6705882 C17.9966387,13.8991597 17.610084,13.9462185 17.2806723,13.7882353 C16.9609588,13.6404254 16.7562853,13.3202951 16.7563025,12.9680672 L16.7394958,10.7798319 L13.2571429,10.7865546 C12.4605042,10.7865546 11.8151261,10.1411765 11.8117647,9.34453782 L11.8117647,6.56134454 C11.8117647,5.76470588 12.4571429,5.11932773 13.2537815,5.11932773 L16.7394958,5.11596639 L16.7563025,2.92773109 C16.7563025,2.57478992 16.9613445,2.25546218 17.2806723,2.10756303 C17.610084,1.95294118 17.9966387,2 18.2789916,2.22857143 C18.2957983,2.24201681 18.312605,2.25546218 18.3260504,2.27226891 L23.3815126,7.28739496 C23.5764706,7.45546218 23.6840336,7.70084034 23.6840336,7.95966387 L23.6840336,7.95966387 Z M11.8857143,14.410084 L11.8857143,17.1932773 C11.8857143,17.989916 11.2403361,18.6352941 10.4436975,18.6352941 L6.96134454,18.6386555 L6.94453782,20.8268908 C6.94453782,21.1798319 6.7394958,21.4957983 6.42016807,21.6436975 C6.0907563,21.7983193 5.70420168,21.7512605 5.42184874,21.5226891 C5.40504202,21.5092437 5.38823529,21.4957983 5.37478992,21.4789916 L0.322689076,16.4705882 C0.131092437,16.2991597 0.0201680672,16.0537815 0.0201680672,15.794958 C0.0201680672,15.5361345 0.131092437,15.2907563 0.322689076,15.1193277 L5.37478992,10.1344538 C5.39159664,10.1210084 5.40504202,10.1042017 5.42184874,10.0907563 C5.70420168,9.86218487 6.0907563,9.81512605 6.42016807,9.97310924 C6.7394958,10.1210084 6.94453782,10.4403361 6.94453782,10.7932773 L6.96134454,12.9781513 L10.4403361,12.9714286 C11.2403361,12.9714286 11.8857143,13.6168067 11.8857143,14.410084 Z" id="Flechas-Izquierda-y-Derecha_3Masa"></path>
        </g>
    </g>
</svg>

<svg width="24" height="24" viewBox="0 0 24 24" xmlns="http://www.w3.org/2000/svg"><path d="M23.684 7.96c0 .258-.11.504-.306.675l-5.052 4.992c-.017.013-.03.03-.047.044a.938.938 0 01-.998.117.904.904 0 01-.525-.82l-.017-2.188-3.482.007a1.447 1.447 0 01-1.445-1.442V6.56c0-.796.645-1.442 1.442-1.442l3.485-.003.017-2.188c0-.353.205-.673.525-.82a.946.946 0 01.998.12c.017.014.034.027.047.044l5.056 5.015a.883.883 0 01.302.673zm-11.798 6.45v2.783c0 .797-.646 1.442-1.442 1.442l-3.483.004-.016 2.188a.899.899 0 01-.525.817.946.946 0 01-.998-.121c-.017-.014-.034-.027-.047-.044L.323 16.471a.907.907 0 010-1.352l5.052-4.985c.017-.013.03-.03.047-.043a.938.938 0 01.998-.118c.32.148.525.467.525.82l.016 2.185 3.48-.007c.8 0 1.445.646 1.445 1.44z" fill="#5CB615" fill-rule="nonzero"/></svg>
